X:1
T:Plangsty Bourk
T:Plangsty Bourk
T:Carolan
C:Carolan
L:1/8
M:6/8
K:F
V:1 treble 
V:1
 GA(B/c/) d2 c | Bcd cAF | FAF fAF | FAF cAF | (G/A/B)G dBG | GBG gBG | f2 f fga | f3 d3 :: f/g/ | %9
 agf gfe | fed cde | fed gfe | fed cAF | (G/A/B)G dBG | GBG dBG | f2 f fga | f3 d3 :: %17
 (d/e/f)f fg/f/e | f(g/f/e/d/) cAF | g2 g ga/g/f | gde f2 g | agf edc | (d/e/f)d cAF | %23
{e} f2 c (d/e/f)d | B3 G3 :| %25

